X: 178
T:Sharm el Sheikh
C:Raffi Gabai 1968
S:Songs and Folk Dances Bk 9 (c) NEGEN 1967  
O:Israel
F: http://www.youtube.com/watch?v=VfVRX0kV-hc
Q:1/4=102
L:1/8
M:6/8
K:Dm
A "Dm"AGF| D3 D3-|D2 A"Gm"dcG| "Dm"A3 A3-|A2 A "F"cAF|\ 
"Gm"G3 G3-| G2 G GDG| "Dm"A3-A3-|A2 A AGF| D3 D3-|
"Dm"D2 A "Gm"dcG| "Dm"A3-A3-|A2 A "F"cAc| "Dm"d3 d3-|"Bb"d2 B Bcd|\
"A"e3-e3-|e2 f"Dm"fed| f3-f3-|f2 f fed| "Am"ecd "A"e3-| e3 efe| "Dm"d3 d3-|
d2 d ded| "A"^c3-c3-|^c6| "Bbm"^c2 "Dm"[fA] "C"[fA][eG][dF] |\
 [f6-A6-] |[f2A2] [fA] "Gm"[fA][eG][dF] | [Ge][Ec][Fd] [G3-e3-]|\
[G3e3] [Ge][Af][ce]|
"Dm"[d3B3][d3-B3-] |[d2B2] [dB] [dB][ec][dB]| "A"[^c6-A6-]|\
 [^c2A2] [fA] "Dm"[fA][eG][dF]| "Dm"[d6-F6-] | [d2F2]



